src/components/content/our-services/livebuoy.svg

<svg width="42" height="42" viewBox="0 0 42 42" fill="none" xmlns="http://www.w3.org/2000/svg">
<path d="M21.0001 0.166748C9.50008 0.166748 0.166748 9.50008 0.166748 21.0001C0.166748 32.5001 9.50008 41.8334 21.0001 41.8334C32.5001 41.8334 41.8334 32.5001 41.8334 21.0001C41.8334 9.50008 32.5001 0.166748 21.0001 0.166748ZM36.5417 15.0001L30.7501 17.3959C29.6876 14.5626 27.4584 12.3126 24.6042 11.2709L27.0001 5.47925C31.3751 7.14592 34.8542 10.6251 36.5417 15.0001ZM21.0001 27.2501C17.5417 27.2501 14.7501 24.4584 14.7501 21.0001C14.7501 17.5417 17.5417 14.7501 21.0001 14.7501C24.4584 14.7501 27.2501 17.5417 27.2501 21.0001C27.2501 24.4584 24.4584 27.2501 21.0001 27.2501ZM15.0209 5.45842L17.4584 11.2501C14.5834 12.2917 12.3126 14.5626 11.2501 17.4376L5.45842 15.0209C7.14592 10.6251 10.6251 7.14592 15.0209 5.45842ZM5.45842 26.9792L11.2501 24.5834C12.3126 27.4584 14.5626 29.7084 17.4376 30.7501L15.0001 36.5417C10.6251 34.8542 7.14592 31.3751 5.45842 26.9792ZM27.0001 36.5417L24.6042 30.7501C27.4584 29.6876 29.7084 27.4376 30.7501 24.5626L36.5417 27.0001C34.8542 31.3751 31.3751 34.8542 27.0001 36.5417Z" fill="#04E0BD"/>
</svg>

<svg xmlns="http://www.w3.org/2000/svg" width="42" height="42" fill="none">
  <path fill="#04E0BD"
        d="M21 .167C9.5.167.167 9.5.167 21 .167 32.5 9.5 41.833 21 41.833c11.5 0 20.833-9.333 20.833-20.833C41.833 9.5 32.5.167 21 .167ZM36.542 15l-5.792 2.396a10.38 10.38 0 0 0-6.146-6.125L27 5.479A16.588 16.588 0 0 1 36.542 15ZM21 27.25A6.242 6.242 0 0 1 14.75 21 6.242 6.242 0 0 1 21 14.75 6.242 6.242 0 0 1 27.25 21 6.242 6.242 0 0 1 21 27.25ZM15.02 5.458l2.438 5.792a10.417 10.417 0 0 0-6.208 6.188L5.458 15.02a16.634 16.634 0 0 1 9.563-9.563ZM5.459 26.98l5.792-2.396a10.35 10.35 0 0 0 6.188 6.167L15 36.542a16.658 16.658 0 0 1-9.542-9.563ZM27 36.542l-2.396-5.792a10.371 10.371 0 0 0 6.146-6.187L36.542 27A16.682 16.682 0 0 1 27 36.542Z"/>
</svg>
